!!!COM: Gonzaga, Francisca
!!!CDT: 1847/10/17-1935/02/28
!!!OTL: Evoé
**kern	**kern
*part1	*part1
*staff2	*staff1
*I"Piano	*
*clefF4	*clefG2
*k[]	*k[]
*M2/4	*M2/4
=1	=1
*C:	*
8r	8ee 8ccc
=||	=||
!	!LO:TX:b:i:t=Batuque
8.GGL	8ffL 8ddd
.	8ddJ 8bb
16GGJk	.
8.GGL	8eeL 8ccc
.	8ccJ 8aa
16GGJk	.
=	=
8.GGL	8ddL 8bb
.	8ddJ 8bb
16GGJk	.
8.GGL	8r
.	8b 8gg
16GGJk	.
=	=
8.GGL	8ccL 8aa
.	8aJ 8ff
16GGJk	.
8.GGL	8bL 8gg
.	8gJ 8ee
16GGJk	.
=	=
8.GGL	8fL 8dd
.	8fJ 8dd
16GGJk	.
8.GGL	8r
.	8ee 8ccc
16GGJk	.
=	=
8.GGL	8ffL 8ddd
.	8ddJ 8bb
16GGJk	.
8.GGL	8eeL 8ccc
.	8ccJ 8aa
16GGJk	.
=	=
8.GGL	8ddL 8bb
.	8ddJ 8bb
16GGJk	.
8.GGL	8r
.	8b 8gg
16GGJk	.
!!linebreak:original
=	=
8.GGL	8ccL 8aa
.	8aJ 8ff
16GGJk	.
8.GGL	8bL 8gg
.	8gJ 8ee
16GGJk	.
=	=
8.GGL	8fL 8dd
.	8fJ 8dd
16GGJk	.
8GG	4r
8r	.
=||	=||
!	!LO:TX:b:i:t=Zé Pereira
8GGL	[4B [4f [4g
16GGL	.
16GGJJ	.
16GGLL	4B] 4f] 4g]
16GG	.
16GG	.
16GGJJ	.
=	=
8GGL	4B 4f 4g
16GGL	.
16GGJJ	.
8GG^L	8BL 8f 8g
8GG^J	8BJ 8f 8g
=	=
8GGL	[4c [4e [4g
16GGL	.
16GGJJ	.
16GGLL	4c] 4e] 4g]
16GG	.
16GG	.
16GGJJ	.
=	=
8GGL	4c 4e 4g
16GGL	.
16GGJJ	.
8GG^L	8cL 8e 8g
8GG^J	8cJ 8e 8g
=	=
8GG	8B 8f 8g
8r;	8r;
4r	16r
.	16eLL
.	16f
.	16f#XJJ
!!linebreak:original
=!|:	=!|:
16GGKL	(16gLL
8F 8G	16f
.	16d
16FJk 16G	16BJJ)
16GGKL	16bKL 16ee
8F 8G	8f
16FJk 16G	16bJk 16ee
=	=
16CKL	(16eLL 16cc
8E 8G 8c	16b
.	16cc
16EJk 16G 16c	16eeJJ)
16GGKL	16ccKL 16ee 16bb
8E 8G 8c	8cc
16EJk 16G 16c	16aaJk
=	=
16DKL	(16bLL 16gg
8G 8B 8f	16ff
.	16dd
16GJk 16B 16f	16bJJ)
16GGKL	(16aLL
8F 8G 8B	16a-X
.	16g
16FJk 16G 16B	16eeJJ)
=	=
16CKL	(16ddLL
8E 8G 8c	16cc
.	16e
16EJk 16G 16c	16aJJ)
8E 8G 8c	(16gLL
.	16e
8r	16f
.	16f#XJJ)
=	=
16GGKL	(16gLL
8F 8G 8B	16f
.	16d
16FJk 16G	16BJJ)
16GGKL	16bKL 16ee
8F 8G 8B	8f
16FJk 16G 16B	16bJk 16ee
!!linebreak:original
=	=
16CKL	(16eLL 16cc
8E 8G 8c	16b
.	16cc
16EJk 16G 16c	16eeJJ)
16FF#XKL	16ccKL 16ff#X 16bb
8A 8c 8f#X	8cc
16AJk 16c 16f#	16aaJk
=	=
16GGKL	(16ggLL
8G 8c 8e	16ff#X
.	16gg
16GJk 16c 16e	16cccJJ)
16GGKL	(16eeeLL
8F 8G 8B	16ffn
.	16bb
16FJk 16G 16B	16dddJJ)
=||	=||
8CL 8E 8G	8ee 8ccc
8GGJ	8r
8CC	16r
.	(16eLL
8r	16f
.	16f#XJJ)
=:|!	=:|!
8CL 8E 8G	4ee 4ccc
8GGJ	.
8CC	8r
=||	=||
*F:	*
!	!LO:TX:a:t=Fine
8r	16cLL
.	16c#XJJ
=	=
*k[b-]	*k[b-]
16GKL	(16eLL
8B- 8c 8e	16g
.	16b-
16B-Jk 16c 16e	16ccJJ)
16CKL	(16eeLL
8B- 8c 8e	16gg
.	16bb-
16B-Jk 16c 16e	16eeeJJ)
!!linebreak:original
=	=
16FKL	16gggKL
8A 8c 8f	8fff
16AJk 16c 16f	16aaJk
16CKL	(16dddLL
8A 8c 8f	16ccc
.	16ff
16AJk 16c 16f	16bb-JJ)
=	=
16FKL 16B- 16d	16aaKL
8B- 8d 8g	8gg
16B-Jk 16d 16g	16ddJk
16FKL 16B- 16c	(16aaLL
8B- 8c 8e	16gg
.	16cc
16B-Jk 16c 16e	16aaJJ)
=	=
16FKL	(16ggLL
8A 8c 8f	16ff
.	16a
16AJk 16c 16f	16ddJJ)
4C	(16ccLL
.	16c
.	16c#X
.	16eJJ)
=	=
16EKL	(16gLL
8B- 8c 8e	16b-
.	16cc
16B-Jk 16c 16e	16eeJJ)
16CKL	(16ggLL
8B- 8c 8e	16bb-
.	16ccc
16B-Jk 16c 16e	16eeeJJ)
=	=
16FKL	16gggKL
8A 8c 8f	8fff
16AJk 16c 16f	16aaJk
16CKL	(16dddLL
8A 8c 8f	16ccc
.	16ff
16AJk 16c 16f	16aaJJ)
!!pagebreak:original
=	=
16GGKL	16ggLL
8G 8c 8e	16aa
.	16bbn
16GJk 16c 16e	16cccJJ
16GGKL	16dddLL
8G 8Bn 8f	16eee
.	16fff
16GJk 16B 16f	16bbJJ
=	=
8cL 8e	4ccc
8GJ	.
8C	8r
8r	16cLL
.	16c#XJJ
=	=
16GKL	(16eLL
8B- 8c 8e	16g
.	16b-
16B-Jk 16c 16e	16ccJJ
16CKL	16eeLL
8B- 8c 8e	16gg
.	16bb-
16B-Jk 16c 16e	16eeeJJ)
=	=
16FKL	16gggKL
8A 8c 8f	8fff
16AJk 16c 16f	16aaJk
16CKL	(16dddLL
8A 8c 8f	16ccc
.	16ff
16AJk 16c 16f	16bb-JJ)
=	=
16FKL 16B- 16d	16aaKL
8B- 8d 8g	8gg
16B-Jk 16d 16g	16ddJk
16FKL 16B- 16c	(16aaLL
8B- 8c 8e	16gg
.	16cc
16B-Jk 16c 16e	16aaJJ)
!!linebreak:original
=	=
16FKL	(16ggLL
8A 8c 8f	16ff
.	16a
16AJk 16c 16f	16ddJJ
16A 16c 16f	16ccLL
16r	16e-X
8r	16f
.	16aJJ)
=	=
16E-XKL	(16ccLL
8F 8A 8c	16ee-X
.	16ff
16FJk 16A 16c	16aaJJ)
16FKL	16dddLL
8A 8e-X	16ccc
.	16ff
16AJk 16e-	16dddJJ
=	=
16DKL	16cccLL
8F 8B- 8d	16bb-
.	16aa
16FJk 16B- 16d	16bb-JJ
16D-XKL	16cccLL
8F 8B- 8d-X	16bb-
.	16aa
16FJk 16B- 16d-	16ggJJ
=	=
16CKL	8cccL
8A 8c 8f	.
.	16bbnL
16AJk 16c 16f	16cccJJ
16CKL	16ccc#XLL
8B- 8c 8e	16ddd
.	16eee-X
16B-Jk 16c 16e	16eeenJJ
=	=
4A 4c 4f	4fff
8FF	8r
8r;	8ee; 8ccc
==	==
*-	*-
!!!system-decoration: {(s1,s2)}
!!!AGN: Tango
!!!EED: Florian Moldaschl
!!!END: 2025/12/23
!!!ENC: Florian Moldaschl
!!!EEV: 2025/12/23
!!!title: @{OPR}, @{SCT} №@{ONM}